src/assets/filled/SecurityTime.svg

<svg width="24" height="24" viewBox="0 0 24 24"  xmlns="http://www.w3.org/2000/svg">
<path d="M12 8.25C10.21 8.25 8.75 9.71 8.75 11.5C8.75 13.29 10.21 14.75 12 14.75C13.79 14.75 15.25 13.29 15.25 11.5C15.25 9.71 13.79 8.25 12 8.25ZM13 11.18C13 11.79 12.67 12.37 12.15 12.68L11.38 13.14C11.26 13.21 11.13 13.25 10.99 13.25C10.74 13.25 10.49 13.12 10.35 12.89C10.14 12.53 10.25 12.07 10.61 11.86L11.37 11.4C11.45 11.35 11.49 11.27 11.49 11.19V10.26C11.49 9.85 11.83 9.51 12.24 9.51C12.65 9.51 13 9.84 13 10.25V11.18Z" />
<path d="M18.54 4.16965L13.04 2.10965C12.47 1.89965 11.54 1.89965 10.97 2.10965L5.47005 4.16965C4.41005 4.56965 3.55005 5.80965 3.55005 6.93965V15.0396C3.55005 15.8496 4.08005 16.9196 4.73005 17.3996L10.23 21.5096C11.2 22.2396 12.79 22.2396 13.76 21.5096L19.26 17.3996C19.91 16.9096 20.4401 15.8496 20.4401 15.0396V6.93965C20.4501 5.80965 19.59 4.56965 18.54 4.16965ZM12 16.2496C9.38005 16.2496 7.25005 14.1196 7.25005 11.4996C7.25005 8.87965 9.38005 6.74965 12 6.74965C14.62 6.74965 16.75 8.87965 16.75 11.4996C16.75 14.1196 14.62 16.2496 12 16.2496Z" />
</svg>

<?xml version="1.0" encoding="UTF-8"?>
<svg width="24" height="24" viewBox="0 0 24 24" xmlns="http://www.w3.org/2000/svg">
 <path d="m12 8.25c-1.79 0-3.25 1.46-3.25 3.25s1.46 3.25 3.25 3.25 3.25-1.46 3.25-3.25-1.46-3.25-3.25-3.25zm1 2.93c0 0.61-0.33 1.19-0.85 1.5l-0.77 0.46c-0.12 0.07-0.25 0.11-0.39 0.11-0.25 0-0.5-0.13-0.64-0.36-0.21-0.36-0.1-0.82 0.26-1.03l0.76-0.46c0.08-0.05 0.12-0.13 0.12-0.21v-0.93c0-0.41 0.34-0.75 0.75-0.75s0.76 0.33 0.76 0.74v0.93z"/>
 <path d="m18.54 4.1696-5.5-2.06c-0.57-0.21-1.5-0.21-2.07 0l-5.5 2.06c-1.06 0.4-1.92 1.64-1.92 2.77v8.1c0 0.81 0.53 1.88 1.18 2.36l5.5 4.11c0.97 0.73 2.56 0.73 3.53 0l5.5-4.11c0.65-0.49 1.1801-1.55 1.1801-2.36v-8.1c0.01-1.13-0.8501-2.37-1.9001-2.77zm-6.54 12.08c-2.62 0-4.75-2.13-4.75-4.75 0-2.62 2.13-4.75 4.75-4.75 2.62 0 4.75 2.13 4.75 4.75 0 2.62-2.13 4.75-4.75 4.75z"/>
</svg>
